X:528
%%notationfont Times-Bold 16
T:Duke of Fife's Welcome To Deeside, The
C:Joe Buchanan's Scottish Tome - Page 034.0
I:034 0
R:Reel
Z:Carl Allison
L:1/8
M:4/4
K:C
E | (EA) AB/c/ (BA) AB/c/ | de/f/ (ea) e/c/A/c/ BE |
!>!(EA) AB/c/ (BA) AB/c/ | {c}de/f/ e/c/B/c/ {/G}(A2 A) :|
c/d/ | ec/A/ ag/a/ faec | de/f/ ea e/c/A/c/ Bc/d/ |
ec/A/ ag/a/ faec | de/f/ e/c/B/c/ {/G}([AA]2 A)c/d/ |
ecA ag/a/ faec | de/f/ (ea) e/c/A/c/ BE |
(EA) AB/c/ {c}(BA) AB/c/ | {c}de/f/ e/c/B/c/ {G}(A2 A) :|
%%vskip 30
P:Var
E/D/C/E/ A/A,/A/c/ B/A/G/B/ A/A,/A/c/ | d/e/f/a/ e/c/d/B/ A2 Ac/d/ |
e/c/d/B/ A/a/g/a/ f/a/d/f/ e/a/c/e/ | d/c/d/f/ e/c/A/a/ e/c/A/c/ B/B/c/d/ |
e/c/d/B/ A/a/g/a/ f/a/d/f/ e/a/c/e/ | d/e/f/g/ e/c/d/B/ {/G}(A2 A) |]
